X:1
T:Title
%%score { 1 | 2 }
L:1/8
M:3/4
K:Ab
V:1 treble nm="Grand Piano"
V:2 bass 
V:1
 z2 z2[Q:1/4=100] [CE]2 | [DF][CE] [CE]2 c2 | dc c2 A2 | [GB]4 [GB]2 | [Ac]4 [CE]2 | %5
 [DF][CE] [CE]2 c2 |[M:2/4] dc c2 |[M:1/4] [A,EA]2 |[M:3/4] [DFB]4 [DGB]2 |[M:2/4] [CA]4 | %10
[M:1/4] c2 |[M:3/4] dc c2 A2 | cB B2 [=Ec]2 | [FA]3 [GB] c=d |[M:4/4] [Ge]6 [DE]2 | %15
[M:3/4] [DF][CE] [CE]2 c2 |[M:2/4] dc c2 |[M:1/4] [A,EA]2 |[M:3/4] [DFB]4 [DGB]2 | %19
[M:6/4] .[CA]6 z6 |] %20
V:2
 z2 z2 [A,,A,]2 | [A,,A,][A,,A,] [A,,A,]2 [A,E]2 | [A,F][A,E][K:bass] [A,E]2 [A,CE]2 | %3
 [E,E]4 [E,E]2 | [A,E]4 [A,,A,]2 | [A,,A,][A,,A,] [A,,A,]2[K:treble] [A,E]2 | %6
[M:2/4] [A,F][K:bass][A,E] [A,E]2 |[M:1/4] C,2 |[M:3/4] D,4 E,2 |[M:2/4] A,,4 | %10
[M:1/4][K:treble] [A,E]2 |[M:3/4] [A,F][A,E] [A,E]2 [A,CE]2 | [E,A,E][E,G,E] [E,G,E]2 [C,G,]2 | %13
 [F,A,]3 [E,E] [A,EA][F,B,] |[M:4/4] [E,B,]6 [E,G,]2 | %15
[M:3/4] [A,,A,][A,,A,] [A,,A,]2[K:treble] [A,E]2 |[M:2/4] [A,F][K:bass][A,E] [A,E]2 |[M:1/4] C,2 | %18
[M:3/4] D,4 E,2 |[M:6/4] .A,,6 z6 |] %20

